X: 1
T: Kafoozalum
C: Trad
R: Hornpipe (Swung)
L: 1/8
M: 4/4
K: G
Z: ABC transcription by Verge Roller
|: "G" d2 d>cB>c d2 | "D" A>Bc>B A>B c2 | "G" d2 d>cB>c d2 | "G" G>AB>G "D" A2 "G" G2 :|
|: "G" B>GD>G B>G B2 | "D" c>AF>A c>A c2 | "G" B>GD>G B>G B2 | "G" G>AB>G "D" A2 "G" G2 :|
r: 16
